imagens/bg-port.svg

<svg xmlns="http://www.w3.org/2000/svg" width="1920" height="1080" viewBox="0 0 1920 1080"><path fill="#000422" d="M0 0h1920v1080H0z"/><defs><linearGradient x1="43.8%" y1="100%" y2="0%"><stop offset="14.444%" stop-color="#000548"/><stop offset="85.556%" stop-color="#000548"/></linearGradient></defs><defs><linearGradient x1="43.8%" y1="100%" y2="0%"><stop offset="14.444%" stop-color="#000548"/><stop offset="85.556%" stop-color="#000641"/></linearGradient></defs><defs><linearGradient x1="43.8%" y1="100%" y2="0%"><stop offset="14.444%" stop-color="#00063a"/><stop offset="85.556%" stop-color="#000641"/></linearGradient></defs><defs><linearGradient x1="43.8%" y1="100%" y2="0%"><stop offset="14.444%" stop-color="#00063a"/><stop offset="85.556%" stop-color="#000632"/></linearGradient></defs><defs><linearGradient x1="43.8%" y1="100%" y2="0%"><stop offset="14.444%" stop-color="#00052a"/><stop offset="85.556%" stop-color="#000632"/></linearGradient></defs><defs><linearGradient x1="43.8%" y1="100%" y2="0%"><stop offset="14.444%" stop-color="#00052a"/><stop offset="85.556%" stop-color="#000422"/></linearGradient></defs><defs><linearGradient x1="0%" x2="56.3%" y1="100%" y2="0%"><stop offset="14.444%" stop-color="#000548"/><stop offset="85.556%" stop-color="#000548"/></linearGradient></defs><defs><linearGradient x1="0%" x2="56.3%" y1="100%" y2="0%"><stop offset="14.444%" stop-color="#000641"/><stop offset="85.556%" stop-color="#000548"/></linearGradient></defs><defs><linearGradient x1="0%" x2="56.3%" y1="100%" y2="0%"><stop offset="14.444%" stop-color="#000641"/><stop offset="85.556%" stop-color="#00063a"/></linearGradient></defs><defs><linearGradient x1="0%" x2="56.3%" y1="100%" y2="0%"><stop offset="14.444%" stop-color="#000632"/><stop offset="85.556%" stop-color="#00063a"/></linearGradient></defs><defs><linearGradient x1="0%" x2="56.3%" y1="100%" y2="0%"><stop offset="14.444%" stop-color="#000632"/><stop offset="85.556%" stop-color="#00052a"/></linearGradient></defs><defs><linearGradient x1="0%" x2="56.3%" y1="100%" y2="0%"><stop offset="14.444%" stop-color="#000422"/><stop offset="85.556%" stop-color="#00052a"/></linearGradient></defs><g transform="translate(1920 1080)"><path fill="#000526" d="M-486 0c27-60.2 54.1-120.4 88.7-164.6 34.7-44.1 76.9-72.3 109.5-123.2S-232.3-412.2-186-449c46.4-36.8 116.2-36.9 186-37V0Z"/><path fill="#00052e" d="M-405 0c22.5-50.2 45.1-100.3 73.9-137.1 28.9-36.9 64.1-60.3 91.3-102.7 27.1-42.4 46.2-103.7 84.8-134.4 38.6-30.6 96.8-30.7 155-30.8V0Z"/><path fill="#000636" d="M-324 0c18-40.1 36.1-80.2 59.2-109.7s51.2-48.3 72.9-82.2c21.8-33.9 37-82.9 67.9-107.4 30.9-24.6 77.5-24.6 124-24.7V0Z"/><path fill="#00063d" d="M-243 0c13.5-30.1 27-60.2 44.4-82.3 17.3-22.1 38.4-36.2 54.7-61.6s27.7-62.2 50.9-80.6S-34.9-243 0-243V0Z"/><path fill="#000645" d="M-162 0c9-20.1 18-40.1 29.6-54.9 11.5-14.7 25.6-24.1 36.5-41 10.8-17 18.5-41.5 33.9-53.8C-46.5-161.9-23.3-162 0-162V0Z"/><path fill="#000548" d="M-81 0c4.5-10 9-20.1 14.8-27.4C-60.4-34.8-53.4-39.5-48-48c5.5-8.4 9.3-20.7 17-26.8C-23.3-81-11.6-81 0-81V0Z"/></g><path fill="#000526" d="M486 0c-17.7 64.6-35.4 129.2-73 171.1s-95.1 61.1-131.6 110.3c-36.5 49.3-52 128.5-95.4 167.6S71.3 487.1 0 486V0Z"/><path fill="#00052e" d="M405 0c-14.8 53.8-29.5 107.6-60.9 142.5-31.3 35-79.2 51-109.6 92-30.4 41.1-43.3 107.1-79.5 139.7S59.4 405.9 0 405V0Z"/><path fill="#000636" d="M324 0c-11.8 43.1-23.6 86.1-48.7 114-25 28-63.3 40.8-87.7 73.6-24.3 32.8-34.7 85.7-63.6 111.7C95 325.4 47.5 324.7 0 324V0Z"/><path fill="#00063d" d="M243 0c-8.9 32.3-17.7 64.6-36.5 85.5-18.8 21-47.5 30.6-65.8 55.2-18.2 24.6-26 64.3-47.7 83.8-21.7 19.6-57.4 19-93 18.5V0Z"/><path fill="#000645" d="M162 0c-5.9 21.5-11.8 43.1-24.3 57-12.6 14-31.7 20.4-43.9 36.8S76.5 136.6 62 149.7c-14.5 13-38.2 12.7-62 12.3V0Z"/><path fill="#000548" d="M81 0c-3 10.8-5.9 21.5-12.2 28.5-6.2 7-15.8 10.2-21.9 18.4S38.2 68.3 31 74.8c-7.2 6.6-19.1 6.4-31 6.2V0Z"/></svg>

<svg id="visual" viewBox="0 0 1920 1080" width="1920" height="1080" xmlns="http://www.w3.org/2000/svg" xmlns:xlink="http://www.w3.org/1999/xlink" version="1.1"><rect x="0" y="0" width="1920" height="1080" fill="#000422"></rect><defs><linearGradient id="grad1_0" x1="43.8%" y1="100%" x2="100%" y2="0%"><stop offset="14.444444444444446%" stop-color="#000548" stop-opacity="1"></stop><stop offset="85.55555555555554%" stop-color="#000548" stop-opacity="1"></stop></linearGradient></defs><defs><linearGradient id="grad1_1" x1="43.8%" y1="100%" x2="100%" y2="0%"><stop offset="14.444444444444446%" stop-color="#000548" stop-opacity="1"></stop><stop offset="85.55555555555554%" stop-color="#000641" stop-opacity="1"></stop></linearGradient></defs><defs><linearGradient id="grad1_2" x1="43.8%" y1="100%" x2="100%" y2="0%"><stop offset="14.444444444444446%" stop-color="#00063a" stop-opacity="1"></stop><stop offset="85.55555555555554%" stop-color="#000641" stop-opacity="1"></stop></linearGradient></defs><defs><linearGradient id="grad1_3" x1="43.8%" y1="100%" x2="100%" y2="0%"><stop offset="14.444444444444446%" stop-color="#00063a" stop-opacity="1"></stop><stop offset="85.55555555555554%" stop-color="#000632" stop-opacity="1"></stop></linearGradient></defs><defs><linearGradient id="grad1_4" x1="43.8%" y1="100%" x2="100%" y2="0%"><stop offset="14.444444444444446%" stop-color="#00052a" stop-opacity="1"></stop><stop offset="85.55555555555554%" stop-color="#000632" stop-opacity="1"></stop></linearGradient></defs><defs><linearGradient id="grad1_5" x1="43.8%" y1="100%" x2="100%" y2="0%"><stop offset="14.444444444444446%" stop-color="#00052a" stop-opacity="1"></stop><stop offset="85.55555555555554%" stop-color="#000422" stop-opacity="1"></stop></linearGradient></defs><defs><linearGradient id="grad2_0" x1="0%" y1="100%" x2="56.3%" y2="0%"><stop offset="14.444444444444446%" stop-color="#000548" stop-opacity="1"></stop><stop offset="85.55555555555554%" stop-color="#000548" stop-opacity="1"></stop></linearGradient></defs><defs><linearGradient id="grad2_1" x1="0%" y1="100%" x2="56.3%" y2="0%"><stop offset="14.444444444444446%" stop-color="#000641" stop-opacity="1"></stop><stop offset="85.55555555555554%" stop-color="#000548" stop-opacity="1"></stop></linearGradient></defs><defs><linearGradient id="grad2_2" x1="0%" y1="100%" x2="56.3%" y2="0%"><stop offset="14.444444444444446%" stop-color="#000641" stop-opacity="1"></stop><stop offset="85.55555555555554%" stop-color="#00063a" stop-opacity="1"></stop></linearGradient></defs><defs><linearGradient id="grad2_3" x1="0%" y1="100%" x2="56.3%" y2="0%"><stop offset="14.444444444444446%" stop-color="#000632" stop-opacity="1"></stop><stop offset="85.55555555555554%" stop-color="#00063a" stop-opacity="1"></stop></linearGradient></defs><defs><linearGradient id="grad2_4" x1="0%" y1="100%" x2="56.3%" y2="0%"><stop offset="14.444444444444446%" stop-color="#000632" stop-opacity="1"></stop><stop offset="85.55555555555554%" stop-color="#00052a" stop-opacity="1"></stop></linearGradient></defs><defs><linearGradient id="grad2_5" x1="0%" y1="100%" x2="56.3%" y2="0%"><stop offset="14.444444444444446%" stop-color="#000422" stop-opacity="1"></stop><stop offset="85.55555555555554%" stop-color="#00052a" stop-opacity="1"></stop></linearGradient></defs><g transform="translate(1920, 1080)"><path d="M-486 0C-459 -60.2 -431.9 -120.4 -397.3 -164.6C-362.6 -208.7 -320.4 -236.9 -287.8 -287.8C-255.2 -338.7 -232.3 -412.2 -186 -449C-139.6 -485.8 -69.8 -485.9 0 -486L0 0Z" fill="#000526"></path><path d="M-405 0C-382.5 -50.2 -359.9 -100.3 -331.1 -137.1C-302.2 -174 -267 -197.4 -239.8 -239.8C-212.7 -282.2 -193.6 -343.5 -155 -374.2C-116.4 -404.8 -58.2 -404.9 0 -405L0 0Z" fill="#00052e"></path><path d="M-324 0C-306 -40.1 -287.9 -80.2 -264.8 -109.7C-241.7 -139.2 -213.6 -158 -191.9 -191.9C-170.1 -225.8 -154.9 -274.8 -124 -299.3C-93.1 -323.9 -46.5 -323.9 0 -324L0 0Z" fill="#000636"></path><path d="M-243 0C-229.5 -30.1 -216 -60.2 -198.6 -82.3C-181.3 -104.4 -160.2 -118.5 -143.9 -143.9C-127.6 -169.3 -116.2 -206.1 -93 -224.5C-69.8 -242.9 -34.9 -243 0 -243L0 0Z" fill="#00063d"></path><path d="M-162 0C-153 -20.1 -144 -40.1 -132.4 -54.9C-120.9 -69.6 -106.8 -79 -95.9 -95.9C-85.1 -112.9 -77.4 -137.4 -62 -149.7C-46.5 -161.9 -23.3 -162 0 -162L0 0Z" fill="#000645"></path><path d="M-81 0C-76.5 -10 -72 -20.1 -66.2 -27.4C-60.4 -34.8 -53.4 -39.5 -48 -48C-42.5 -56.4 -38.7 -68.7 -31 -74.8C-23.3 -81 -11.6 -81 0 -81L0 0Z" fill="#000548"></path></g><g transform="translate(0, 0)"><path d="M486 0C468.3 64.6 450.6 129.2 413 171.1C375.4 213 317.9 232.2 281.4 281.4C244.9 330.7 229.4 409.9 186 449C142.6 488.1 71.3 487.1 0 486L0 0Z" fill="#000526"></path><path d="M405 0C390.2 53.8 375.5 107.6 344.1 142.5C312.8 177.5 264.9 193.5 234.5 234.5C204.1 275.6 191.2 341.6 155 374.2C118.8 406.8 59.4 405.9 0 405L0 0Z" fill="#00052e"></path><path d="M324 0C312.2 43.1 300.4 86.1 275.3 114C250.3 142 212 154.8 187.6 187.6C163.3 220.4 152.9 273.3 124 299.3C95 325.4 47.5 324.7 0 324L0 0Z" fill="#000636"></path><path d="M243 0C234.1 32.3 225.3 64.6 206.5 85.5C187.7 106.5 159 116.1 140.7 140.7C122.5 165.3 114.7 205 93 224.5C71.3 244.1 35.6 243.5 0 243L0 0Z" fill="#00063d"></path><path d="M162 0C156.1 21.5 150.2 43.1 137.7 57C125.1 71 106 77.4 93.8 93.8C81.6 110.2 76.5 136.6 62 149.7C47.5 162.7 23.8 162.4 0 162L0 0Z" fill="#000645"></path><path d="M81 0C78 10.8 75.1 21.5 68.8 28.5C62.6 35.5 53 38.7 46.9 46.9C40.8 55.1 38.2 68.3 31 74.8C23.8 81.4 11.9 81.2 0 81L0 0Z" fill="#000548"></path></g></svg>
